Newaita-dark/apps/16/teamviewer.svg

<?xml version="1.0" encoding="UTF-8"?>
<svg xmlns="http://www.w3.org/2000/svg" xmlns:xlink="http://www.w3.org/1999/xlink" width="16pt" height="16pt" viewBox="0 0 16 16" version="1.1">
<defs>
<linearGradient id="linear0" gradientUnits="userSpaceOnUse" x1="254" y1="233.5" x2="254" y2="254.666672" gradientTransform="matrix(0.031253,0,0,0.031253,-0.00000190753,6.719393)">
<stop offset="0" style="stop-color:rgb(0%,0%,0%);stop-opacity:0.27451;"/>
<stop offset="1" style="stop-color:rgb(0%,0%,0%);stop-opacity:0;"/>
</linearGradient>
<radialGradient id="radial0" gradientUnits="userSpaceOnUse" cx="450.908936" cy="189.579361" fx="450.908936" fy="189.579361" r="21.166656" gradientTransform="matrix(0.0000000870852,-0.0390662,-0.0703192,-0.0000000507693,26.561465,31.797666)">
<stop offset="0" style="stop-color:rgb(0%,0%,0%);stop-opacity:0.313725;"/>
<stop offset="0.222222" style="stop-color:rgb(0%,0%,0%);stop-opacity:0.27451;"/>
<stop offset="1" style="stop-color:rgb(0%,0%,0%);stop-opacity:0;"/>
</radialGradient>
<radialGradient id="radial1" gradientUnits="userSpaceOnUse" cx="450.908936" cy="189.579361" fx="450.908936" fy="189.579361" r="21.166656" gradientTransform="matrix(-0.0000000870852,0.0390662,0.0703192,0.0000000507693,-10.60226,-3.763739)">
<stop offset="0" style="stop-color:rgb(0%,0%,0%);stop-opacity:0.313725;"/>
<stop offset="0.222222" style="stop-color:rgb(0%,0%,0%);stop-opacity:0.27451;"/>
<stop offset="1" style="stop-color:rgb(0%,0%,0%);stop-opacity:0;"/>
</radialGradient>
<radialGradient id="radial2" gradientUnits="userSpaceOnUse" cx="450.908936" cy="189.579361" fx="450.908936" fy="189.579361" r="21.166656" gradientTransform="matrix(-0.0000000870852,-0.0390662,0.0703192,-0.0000000507693,-10.60226,31.797666)">
<stop offset="0" style="stop-color:rgb(0%,0%,0%);stop-opacity:0.313725;"/>
<stop offset="0.222222" style="stop-color:rgb(0%,0%,0%);stop-opacity:0.27451;"/>
<stop offset="1" style="stop-color:rgb(0%,0%,0%);stop-opacity:0;"/>
</radialGradient>
<radialGradient id="radial3" gradientUnits="userSpaceOnUse" cx="450.908936" cy="189.579361" fx="450.908936" fy="189.579361" r="21.166656" gradientTransform="matrix(0.0000000870852,0.0390662,-0.0703192,0.0000000507693,26.561464,-3.76374)">
<stop offset="0" style="stop-color:rgb(0%,0%,0%);stop-opacity:0.313725;"/>
<stop offset="0.222222" style="stop-color:rgb(0%,0%,0%);stop-opacity:0.27451;"/>
<stop offset="1" style="stop-color:rgb(0%,0%,0%);stop-opacity:0;"/>
</radialGradient>
<linearGradient id="linear1" gradientUnits="userSpaceOnUse" x1="254" y1="233.5" x2="254" y2="-168.666672" gradientTransform="matrix(0.031253,0,0,0.031253,0,6.719392)">
<stop offset="0" style="stop-color:rgb(11.764706%,53.333333%,89.803922%);stop-opacity:1;"/>
<stop offset="1" style="stop-color:rgb(12.941176%,58.823529%,95.294118%);stop-opacity:1;"/>
</linearGradient>
<linearGradient id="linear2" gradientUnits="userSpaceOnUse" x1="254" y1="169.57666" x2="254" y2="-94.583336" gradientTransform="matrix(1.104167,0,0,1.104167,-29.104172,-0.730905)">
<stop offset="0" style="stop-color:rgb(87.843137%,87.843137%,87.843137%);stop-opacity:1;"/>
<stop offset="1" style="stop-color:rgb(74.117647%,74.117647%,74.117647%);stop-opacity:1;"/>
</linearGradient>
<linearGradient id="linear3" gradientUnits="userSpaceOnUse" x1="960" y1="1175.118164" x2="960" y2="735.118103" >
<stop offset="0" style="stop-color:rgb(11.764706%,53.333333%,89.803922%);stop-opacity:1;"/>
<stop offset="1" style="stop-color:rgb(12.941176%,58.823529%,95.294118%);stop-opacity:1;"/>
</linearGradient>
</defs>
<g id="surface1">
<path style=" stroke:none;fill-rule:nonzero;fill:url(#linear0);" d="M 2.5625 14.015625 L 13.394531 14.015625 L 13.394531 14.679688 L 2.5625 14.679688 Z M 2.5625 14.015625 "/>
<path style=" stroke:none;fill-rule:nonzero;fill:url(#radial0);" d="M 13.394531 14.015625 L 14.71875 14.015625 L 14.71875 13.355469 L 13.394531 13.355469 Z M 13.394531 14.015625 "/>
<path style=" stroke:none;fill-rule:nonzero;fill:url(#radial1);" d="M 2.5625 14.015625 L 1.242188 14.015625 L 1.242188 14.679688 L 2.5625 14.679688 Z M 2.5625 14.015625 "/>
<path style=" stroke:none;fill-rule:nonzero;fill:url(#radial2);" d="M 2.5625 14.015625 L 1.242188 14.015625 L 1.242188 13.355469 L 2.5625 13.355469 Z M 2.5625 14.015625 "/>
<path style=" stroke:none;fill-rule:nonzero;fill:url(#radial3);" d="M 13.394531 14.015625 L 14.71875 14.015625 L 14.71875 14.679688 L 13.394531 14.679688 Z M 13.394531 14.015625 "/>
<path style=" stroke:none;fill-rule:nonzero;fill:url(#linear1);" d="M 1.820312 1.449219 L 14.058594 1.449219 C 14.332031 1.449219 14.554688 1.671875 14.554688 1.945312 L 14.554688 13.519531 C 14.554688 13.792969 14.332031 14.015625 14.058594 14.015625 L 1.820312 14.015625 C 1.546875 14.015625 1.324219 13.792969 1.324219 13.519531 L 1.324219 1.945312 C 1.324219 1.671875 1.546875 1.449219 1.820312 1.449219 Z M 1.820312 1.449219 "/>
<path style=" stroke:none;fill-rule:nonzero;fill:rgb(100%,100%,100%);fill-opacity:0.392157;" d="M 1.820312 1.449219 C 1.542969 1.449219 1.324219 1.667969 1.324219 1.945312 L 1.324219 2.027344 C 1.324219 1.753906 1.542969 1.53125 1.820312 1.53125 L 14.058594 1.53125 C 14.332031 1.53125 14.554688 1.753906 14.554688 2.027344 L 14.554688 1.945312 C 14.554688 1.667969 14.332031 1.449219 14.058594 1.449219 Z M 1.820312 1.449219 "/>
<path style=" stroke:none;fill-rule:nonzero;fill:rgb(1.176471%,1.176471%,1.176471%);fill-opacity:0.235294;" d="M 1.820312 14.015625 C 1.542969 14.015625 1.324219 13.796875 1.324219 13.519531 L 1.324219 13.4375 C 1.324219 13.710938 1.542969 13.933594 1.820312 13.933594 L 14.058594 13.933594 C 14.332031 13.933594 14.554688 13.710938 14.554688 13.4375 L 14.554688 13.519531 C 14.554688 13.796875 14.332031 14.015625 14.058594 14.015625 Z M 1.820312 14.015625 "/>
<path style=" stroke:none;fill-rule:nonzero;fill:rgb(12.941177%,12.941177%,12.941177%);fill-opacity:1;" d="M 1.820312 1.402344 C 1.519531 1.402344 1.277344 1.644531 1.277344 1.945312 L 1.277344 13.519531 C 1.277344 13.820312 1.519531 14.0625 1.820312 14.0625 L 14.058594 14.0625 C 14.355469 14.0625 14.601562 13.820312 14.601562 13.519531 L 14.601562 1.945312 C 14.601562 1.644531 14.355469 1.402344 14.058594 1.402344 Z M 1.820312 1.496094 L 14.058594 1.496094 C 14.308594 1.496094 14.507812 1.695312 14.507812 1.945312 L 14.507812 13.519531 C 14.507812 13.769531 14.308594 13.96875 14.058594 13.96875 L 1.820312 13.96875 C 1.570312 13.96875 1.371094 13.769531 1.371094 13.519531 L 1.371094 1.945312 C 1.371094 1.695312 1.570312 1.496094 1.820312 1.496094 Z M 1.820312 1.496094 "/>
<path style="fill-rule:nonzero;fill:url(#linear2);stroke-width:3.518854;stroke-linecap:round;stroke-linejoin:round;stroke:rgb(12.941177%,12.941177%,12.941177%);stroke-opacity:1;stroke-miterlimit:4;" d="M 253.975747 -115.759477 C 335.842929 -115.759477 402.211591 -49.390815 402.211591 32.476367 C 402.211591 114.218561 335.842929 180.587223 253.975747 180.587223 C 172.108564 180.587223 105.86489 114.218561 105.86489 32.476367 C 105.86489 -49.390815 172.108564 -115.759477 253.975747 -115.759477 Z M 253.975747 -115.759477 " transform="matrix(0.031253,0,0,0.031253,0,6.719392)"/>
<path style="fill-rule:nonzero;fill:url(#linear3);stroke-width:11.338583;stroke-linecap:round;stroke-linejoin:round;stroke:rgb(12.941177%,12.941177%,12.941177%);stroke-opacity:1;stroke-miterlimit:4;" d="M 799.766188 735.047955 L 599.94274 895.190151 C 559.789092 935.343799 559.789092 935.343799 599.94274 975.025051 L 799.766188 1155.007873 L 799.766188 1035.019325 L 1120.05058 1035.019325 L 1120.05058 1155.007873 L 1319.874028 975.025051 C 1360.027676 935.343799 1360.027676 935.343799 1319.874028 895.190151 L 1120.05058 735.047955 L 1120.05058 855.036503 L 799.766188 855.036503 Z M 799.766188 735.047955 " transform="matrix(0.00826902,0,0,0.00826902,0,0)"/>
</g>
</svg>

<svg xmlns="http://www.w3.org/2000/svg" width="16pt" height="16pt" viewBox="0 0 16 16"><defs><linearGradient id="a" gradientUnits="userSpaceOnUse" x1="254" y1="233.5" x2="254" y2="254.667" gradientTransform="matrix(.03125 0 0 .03125 0 6.72)"><stop offset="0" stop-opacity=".275"/><stop offset="1" stop-opacity="0"/></linearGradient><radialGradient id="b" gradientUnits="userSpaceOnUse" cx="450.909" cy="189.579" fx="450.909" fy="189.579" r="21.167" gradientTransform="matrix(0 -.03907 -.07032 0 26.561 31.798)"><stop offset="0" stop-opacity=".314"/><stop offset=".222" stop-opacity=".275"/><stop offset="1" stop-opacity="0"/></radialGradient><radialGradient id="c" gradientUnits="userSpaceOnUse" cx="450.909" cy="189.579" fx="450.909" fy="189.579" r="21.167" gradientTransform="matrix(0 .03907 .07032 0 -10.602 -3.764)"><stop offset="0" stop-opacity=".314"/><stop offset=".222" stop-opacity=".275"/><stop offset="1" stop-opacity="0"/></radialGradient><radialGradient id="d" gradientUnits="userSpaceOnUse" cx="450.909" cy="189.579" fx="450.909" fy="189.579" r="21.167" gradientTransform="matrix(0 -.03907 .07032 0 -10.602 31.798)"><stop offset="0" stop-opacity=".314"/><stop offset=".222" stop-opacity=".275"/><stop offset="1" stop-opacity="0"/></radialGradient><radialGradient id="e" gradientUnits="userSpaceOnUse" cx="450.909" cy="189.579" fx="450.909" fy="189.579" r="21.167" gradientTransform="matrix(0 .03907 -.07032 0 26.561 -3.764)"><stop offset="0" stop-opacity=".314"/><stop offset=".222" stop-opacity=".275"/><stop offset="1" stop-opacity="0"/></radialGradient><linearGradient id="f" gradientUnits="userSpaceOnUse" x1="254" y1="233.5" x2="254" y2="-168.667" gradientTransform="matrix(.03125 0 0 .03125 0 6.72)"><stop offset="0" stop-color="#1e88e5"/><stop offset="1" stop-color="#2196f3"/></linearGradient><linearGradient id="g" gradientUnits="userSpaceOnUse" x1="254" y1="169.577" x2="254" y2="-94.583" gradientTransform="matrix(1.10417 0 0 1.10417 -29.104 -.73)"><stop offset="0" stop-color="#e0e0e0"/><stop offset="1" stop-color="#bdbdbd"/></linearGradient><linearGradient id="h" gradientUnits="userSpaceOnUse" x1="960" y1="1175.118" x2="960" y2="735.118"><stop offset="0" stop-color="#1e88e5"/><stop offset="1" stop-color="#2196f3"/></linearGradient></defs><path d="M2.563 14.016h10.832v.664H2.563zm0 0" fill="url(#a)"/><path d="M13.395 14.016h1.324v-.66h-1.324zm0 0" fill="url(#b)"/><path d="M2.563 14.016h-1.32v.664h1.32zm0 0" fill="url(#c)"/><path d="M2.563 14.016h-1.32v-.66h1.32zm0 0" fill="url(#d)"/><path d="M13.395 14.016h1.324v.664h-1.324zm0 0" fill="url(#e)"/><path d="M1.82 1.45H14.06c.273 0 .496.222.496.495V13.52a.497.497 0 0 1-.496.496H1.82a.497.497 0 0 1-.496-.496V1.945c0-.273.223-.496.496-.496zm0 0" fill="url(#f)"/><path d="M1.82 1.45a.492.492 0 0 0-.496.495v.082c0-.273.219-.496.496-.496H14.06c.273 0 .496.223.496.496v-.082a.494.494 0 0 0-.496-.496zm0 0" fill="#fff" fill-opacity=".392"/><path d="M1.82 14.016a.492.492 0 0 1-.496-.496v-.082c0 .273.219.496.496.496H14.06a.497.497 0 0 0 .496-.496v.082a.494.494 0 0 1-.496.496zm0 0" fill="#030303" fill-opacity=".235"/><path d="M1.82 1.402c-.3 0-.543.243-.543.543V13.52c0 .3.243.543.543.543H14.06a.544.544 0 0 0 .543-.543V1.945c0-.3-.247-.543-.543-.543zm0 .094H14.06c.25 0 .449.2.449.45V13.52c0 .25-.2.449-.45.449H1.82c-.25 0-.449-.2-.449-.45V1.946c0-.25.2-.449.45-.449zm0 0" fill="#212121"/><path d="M253.976-115.76c81.867 0 148.236 66.37 148.236 148.236 0 81.743-66.37 148.111-148.236 148.111-81.867 0-148.111-66.368-148.111-148.11 0-81.868 66.244-148.236 148.11-148.236zm0 0" transform="matrix(.03125 0 0 .03125 0 6.72)" fill="url(#g)" stroke-width="3.519" stroke-linecap="round" stroke-linejoin="round" stroke="#212121"/><path d="M799.766 735.048L599.943 895.19c-40.154 40.154-40.154 40.154 0 79.835l199.823 179.983v-119.989h320.285v119.989l199.823-179.983c40.154-39.681 40.154-39.681 0-79.835l-199.823-160.142v119.989H799.766zm0 0" transform="rotate(.882) scale(.00827)" fill="url(#h)" stroke-width="11.339" stroke-linecap="round" stroke-linejoin="round" stroke="#212121"/></svg>
